X:140
T: ES GIENG EIN MAEDCHEN GRAS SCHNEIDEN
N: E0071E
O: Europa, Mitteleuropa, Italien, Tirol, Meran,
R: erzaehlendes Volks - Lied, Sage, Liebe
M: 6/8
L: 1/8
K: G
D | G2GBBd | G2BB2
d | d2dc2c | B3A2
d | c2cedc | B2Bdc
B | A2AcBA | G3B2
d | c2cedc | B2Bdc
B | A2AcBA | G3z2

